build/img/tablet.svg

<svg width="37" height="32" viewBox="0 0 37 32" fill="none" xmlns="http://www.w3.org/2000/svg">
<path d="M32.7351 13.0729C30.9847 11.792 28.9526 11.1008 26.7998 11.0602C27.846 7.70564 26.7394 3.8632 23.802 1.66752C21.9912 0.325713 19.7781 -0.243537 17.5649 0.102079C15.3517 0.427365 13.38 1.62686 12.0521 3.43626L1.65027 17.6269C0.32237 19.4566 -0.24098 21.6929 0.101054 23.9293C0.422968 26.1656 1.61003 28.158 3.40067 29.4998C4.90965 30.618 6.66005 31.1669 8.39034 31.1669C10.9657 31.1669 13.5007 29.9877 15.1505 27.7311L16.9613 25.2711C17.6454 27.1008 18.8526 28.7679 20.5225 29.9877C22.3131 31.3092 24.4257 32.0004 26.6187 32.0004C29.9184 32.0004 33.057 30.3943 35.0086 27.6904C38.3686 23.0347 37.3626 16.468 32.7351 13.0729ZM13.9836 4.90005C14.9292 3.5989 16.3376 2.76536 17.9069 2.52139C19.4964 2.27743 21.0657 2.68404 22.3534 3.63956C24.7677 5.44897 25.4518 8.80348 24.0434 11.4058C21.7498 12.0157 19.6775 13.3981 18.249 15.3702C17.7661 16.0411 17.3838 16.7323 17.082 17.4642L9.15489 11.4871L13.9836 4.90005ZM13.2191 26.2876C11.2473 28.9712 7.50508 29.5405 4.84929 27.5481C3.56163 26.5926 2.73673 25.1694 2.49529 23.5837C2.25385 21.9776 2.65625 20.3918 3.60187 19.0906L8.4507 12.4833L16.6998 18.6434C16.3778 19.7615 16.2571 20.9204 16.3175 22.0792L13.2191 26.2876ZM20.2207 16.7933C21.7095 14.7196 24.1239 13.4998 26.659 13.4998C28.1478 13.4998 29.5763 13.9064 30.8237 14.6993L21.4882 27.6294C18.3496 24.9458 17.746 20.2088 20.2207 16.7933ZM33.057 26.2469C31.5682 28.3206 29.1538 29.5405 26.6187 29.5405C25.1299 29.5405 23.7014 29.1339 22.454 28.341L31.7895 15.4109C34.9281 18.1148 35.5116 22.8518 33.057 26.2469Z" fill="white"/>
<path d="M15.9348 5.57054C16.0756 5.57054 16.2366 5.50955 16.3573 5.4079C17.9467 3.90345 20.1197 4.85898 20.2203 4.89964C20.5221 5.04196 20.8842 4.89964 21.025 4.59469C21.1659 4.28973 21.025 3.92379 20.7233 3.78147C20.6025 3.72048 17.7053 2.41934 15.5324 4.49304C15.291 4.71667 15.2708 5.10295 15.5123 5.34691C15.6129 5.50955 15.7738 5.57054 15.9348 5.57054Z" fill="white"/>
</svg>

<svg width="37" height="32" fill="none" xmlns="http://www.w3.org/2000/svg"><path d="M32.735 13.073A10.286 10.286 0 0026.8 11.06c1.046-3.354-.06-7.197-2.998-9.392C21.992.326 19.778-.244 17.565.102a8.33 8.33 0 00-5.513 3.334L1.65 17.626C.322 19.457-.24 21.694.101 23.93a8.448 8.448 0 003.3 5.57 8.338 8.338 0 0011.75-1.769l1.81-2.459a10.302 10.302 0 003.562 4.717A10.207 10.207 0 0026.619 32c3.3 0 6.438-1.606 8.39-4.31 3.36-4.655 2.354-11.222-2.274-14.617zM13.984 4.9a5.947 5.947 0 013.923-2.379 5.897 5.897 0 014.446 1.119c2.415 1.809 3.099 5.163 1.69 7.766a10.49 10.49 0 00-5.794 3.964 10.23 10.23 0 00-1.167 2.094l-7.927-5.977L13.984 4.9zm-.765 21.388c-1.972 2.683-5.714 3.253-8.37 1.26-1.287-.955-2.112-2.379-2.354-3.964a6.054 6.054 0 011.107-4.493l4.849-6.608 8.249 6.16a10.431 10.431 0 00-.383 3.436l-3.098 4.209zm7.002-9.495a7.941 7.941 0 016.438-3.293 7.71 7.71 0 014.165 1.2l-9.336 12.93c-3.138-2.684-3.742-7.421-1.267-10.837zm12.836 9.454a7.941 7.941 0 01-6.438 3.294 7.71 7.71 0 01-4.165-1.2l9.335-12.93c3.14 2.704 3.723 7.44 1.268 10.836z" fill="#fff"/><path d="M15.935 5.57c.14 0 .302-.06.422-.162 1.59-1.505 3.763-.549 3.863-.508.302.142.664 0 .805-.305a.62.62 0 00-.302-.814c-.12-.06-3.018-1.362-5.19.712a.594.594 0 00-.02.854c.1.163.26.224.422.224z" fill="#fff"/></svg>
